priv/static/svgs/icons_new/text-attach.svg

<svg width="32" height="32" viewBox="0 0 32 32" fill="none" xmlns="http://www.w3.org/2000/svg">
<path d="M13.9617 19.6086L18.1668 15.4034C18.8499 14.7203 18.876 13.639 18.2252 12.9881C17.5743 12.3372 16.5237 12.3942 15.8407 13.0772L9.83067 19.0255C8.46452 20.3917 8.41231 22.5544 9.71406 23.8562C11.0158 25.1579 13.1786 25.1057 14.5447 23.7396L22.5028 15.7815C24.552 13.7323 24.6303 10.4882 22.6777 8.53553C20.7251 6.58291 17.4809 6.66122 15.4317 8.71045L9.51574 14.6264" stroke="black" stroke-linecap="round"/>
</svg>

<svg width="32" height="32" viewBox="0 0 32 32" fill="none" xmlns="http://www.w3.org/2000/svg">
  <symbol id="item" viewBox="0 0 32 32" stroke-width="1" fill="none">
    <path d="m13.962 19.609 4.205-4.206c.683-.683.709-1.764.058-2.415-.65-.65-1.701-.594-2.384.09l-6.01 5.948c-1.366 1.366-1.419 3.528-.117 4.83s3.465 1.25 4.83-.116l7.959-7.958c2.049-2.05 2.127-5.294.175-7.246-1.953-1.953-5.197-1.875-7.246.174l-5.916 5.916" stroke="currentColor" stroke-linecap="round"/>
  </symbol>
</svg>
